!!!OTL: ICH BIN DER DOKTOR EISENBART
!!!ARE: Europa, Mitteleuropa, Deutschland
!!!SCT: B0681
!!!YEM: Copyright 1995, estate of Helmut Schaffrath.
**kern
*ICvox
*Ivox
*M2/4
*k[]
*C:
{8G
=1
8.c
16G
8G
8G
=2
8A
8G
4G}
=3
{16G
16A
16B
16c
8d
8B
=4
4c
8r}
{8G
=5
8.c
16G
8G
8G
=6
8A
8G
4G}
=7
{16G
16A
16B
16c
8d
8B
=8
4c
8r}
{8e
=9
8d
8e
8d
8e
=10
8d
8e
4d}
=11
{16d
16d
16d
16d
8d
8c
=12
8B
8A
8G}
{8G
=13
8.G
16c
8c
8c
=14
8.c
16e
4e}
=15
{16d
16d
16d
16d
8e
8d
=16
4c
8r}
==
!!!AGN: Scherz - Lied
!!!ONB: ESAC (Essen Associative Code) Database: BOEHME
!!!AMT: simple duple
!!!AIN: vox
!!!EED: Helmut Schaffrath
!!!EEV: 1.0
*-
